images/icon/anonymity.svg

<svg height="140" viewBox="0 0 140 140" width="140" xmlns="http://www.w3.org/2000/svg"><path d="m24 1.244c0-.016 0-.031 0-.047a1 1 0 0 0 -.559-.8 1 1 0 0 0 -1.067.125c-2.874 2.328-3.874 1.778-5.524.878a9.123 9.123 0 0 0 -9.7 0c-1.656.9-2.65 1.45-5.518-.885a1 1 0 0 0 -1.632.785c.035 2.481.694 10.563 7.694 10.563a10.97 10.97 0 0 0 4.3-.832 11.069 11.069 0 0 0 4.312.832 6.46 6.46 0 0 0 5.251-2.363.25.25 0 0 1 .443.155v13.345a1 1 0 0 0 2 0v-21.7c0-.021 0-.039 0-.056zm-13.442 6.222c-.4.97-1.781 1.319-3.084.781a14.258 14.258 0 0 1 -3.3-2.922.5.5 0 0 1 .349-.846 14.262 14.262 0 0 1 4.4.258c1.302.538 2.035 1.763 1.635 2.729zm9.32-2.141a14.258 14.258 0 0 1 -3.3 2.922c-1.3.538-2.684.189-3.084-.781s.332-2.191 1.635-2.729a14.266 14.266 0 0 1 4.4-.258.5.5 0 0 1 .349.846z" transform="scale(5.83333333)"/></svg>

<svg viewBox="0 0 140 140" height="140" width="140" xmlns="http://www.w3.org/2000/svg"><g transform="matrix(5.833333333333333,0,0,5.833333333333333,0,0)"><path d="M24,1.244c0-.016,0-.031,0-.047v0a1,1,0,0,0-.559-.8h0a1,1,0,0,0-1.067.125C19.5,2.85,18.5,2.3,16.85,1.4a9.123,9.123,0,0,0-9.7,0C5.494,2.3,4.5,2.85,1.632.515A1,1,0,0,0,0,1.3C.035,3.781.694,11.863,7.694,11.863a10.97,10.97,0,0,0,4.3-.832,11.069,11.069,0,0,0,4.312.832A6.46,6.46,0,0,0,21.557,9.5.25.25,0,0,1,22,9.655V23a1,1,0,0,0,2,0V1.3C24,1.279,24,1.261,24,1.244ZM10.558,7.466c-.4.97-1.781,1.319-3.084.781a14.258,14.258,0,0,1-3.3-2.922.5.5,0,0,1,.349-.846,14.262,14.262,0,0,1,4.4.258C10.225,5.275,10.958,6.5,10.558,7.466Zm9.32-2.141a14.258,14.258,0,0,1-3.3,2.922c-1.3.538-2.684.189-3.084-.781s.332-2.191,1.635-2.729a14.266,14.266,0,0,1,4.4-.258A.5.5,0,0,1,19.878,5.325Z" fill="#000" stroke="none" stroke-linecap="round" stroke-linejoin="round" stroke-width="0"></path></g></svg>
